X: 39881
T: This Is My Love, Do You Like Her?
R: jig
M: 6/8
K: Adorian
|:AcA AGA|c3 d3|ege ede|g3 a2g|
e2f gfe|dBA G2A|B2d dcB|A3 A3:|
|:a2a age|a3 b2a|g2e ede|g3 a2g|
e2f gfe|dBA G2A|B2d dcB|A3 A3:|

